X: 1
T:Eyebrows  "Composed by Terry Tully"
M:C
L:1/8
Q:80
C:
S:Reel
K:HP
|: {g}ed{c}dc{g}cac{G}c|
{g}ed{c}dB{g}c{G}c{g}cd|
{g}ec{G}cA{g}Aac{G}c|  !
{g}dc{G}cA{g}B{G}B|1 {g}cd:|2
{g}cB|] |:
{g}Ac{e}c{G}c{g}dB{g}c{G}c|  !
{g}ca{g}ae{g}dac{G}c|
{g}cA{g}c{G}c{g}dB{g}c{G}c|
{g}ca{g}ad{g}c{d}A{d}B{G}B:| |:  !
{g}ea{g}ae{g}dac{G}c|
{g}ec{G}caBac{G}c|
{g}eAae{g}dac{G}c|  !
{g}eA{gAGAG}A2{g}B{G}B|1 {g}cd:|2
{g}cB|] |:
{g}Ac{e}c{G}c{g}cd{g}c{G}c|  !
ae{A}eadac{G}c|
{g}eA{gAGAG}A2aA{g}c{G}c|
{g}dc{G}cA{g}B{G}B|1 {g}cB:|2  !
{gBd}B2|]
